; Converted for Marlin 3D printer
G28 Z ; home axes
G28 X Y ; home axes
G90
M83
M106 S255
G1 X35 Y78 F1600
G4 P500
G1 E20.0000 F1800
G1 Z0 F800; lower pin
G1 X55 F2000
G1 Z8 F800; raise pin
G1 X49 F1600
G1 X34.0526 F1600 ; original angle 96.77
G1 X55 F1600
G1 E12.4300 F1800
G1 Z0 F800; lower pin
G1 X35 F2000
G1 Z8 F800; raise pin
G1 X40 F1600
G1 X42.8717 F1600 ; original angle -15.53
G1 X35 F1600
G1 E12.4300 F1800
G1 X40 F1600
G1 X42.8717 F1600 ; original angle -15.53
G1 X35 F1600
G1 E12.4300 F1800
G1 X40 F1600
G1 X42.8717 F1600 ; original angle -15.53
G1 X35 F1600
G1 E12.4300 F1800
G1 X40 F1600
G1 X47.3077 F1600 ; original angle -51.51
G1 X35 F1600
G1 E11.6600 F1800
G1 X40 F1600
G1 X52.4640 F1600 ; original angle -90.00
G1 X35 F1600
G1 E6.7300 F1800
G1 X40 F1600
G1 X44.5169 F1600 ; original angle -26.83
G1 X35 F1600
G1 E12.1500 F1800
G1 Z0 F800; lower pin
G1 X55 F2000
G1 Z8 F800; raise pin
G1 X49 F1600
G1 X46.8420 F1600 ; original angle 12.14
G1 X55 F1600
G1 E12.1500 F1800
G1 X49 F1600
G1 X46.8420 F1600 ; original angle 12.14
G1 X55 F1600
G1 E12.1500 F1800
G1 X49 F1600
G1 X46.8420 F1600 ; original angle 12.14
G1 X55 F1600
G1 E12.1500 F1800
G1 X49 F1600
G1 X46.8420 F1600 ; original angle 12.14
G1 X55 F1600
G1 E12.1500 F1800
G1 X49 F1600
G1 X46.8420 F1600 ; original angle 12.14
G1 X55 F1600
G1 E12.1500 F1800
G1 X49 F1600
G1 X46.8420 F1600 ; original angle 12.14
G1 X55 F1600
G1 E12.1500 F1800
G1 X49 F1600
G1 X46.8420 F1600 ; original angle 12.14
G1 X55 F1600
G1 E12.1500 F1800
G1 X49 F1600
G1 X46.8420 F1600 ; original angle 12.14
G1 X55 F1600
G1 E12.1500 F1800
G1 X49 F1600
G1 X46.8420 F1600 ; original angle 12.14
G1 X55 F1600
G1 E12.1500 F1800
G1 X49 F1600
G1 X46.8420 F1600 ; original angle 12.14
G1 X55 F1600
G1 E12.1500 F1800
G1 X49 F1600
G1 X46.8420 F1600 ; original angle 12.14
G1 X55 F1600
G1 E12.1500 F1800
G1 X49 F1600
G1 X46.8420 F1600 ; original angle 12.14
G1 X55 F1600
G1 E12.1500 F1800
G1 X49 F1600
G1 X46.8420 F1600 ; original angle 12.14
G1 X55 F1600
G1 E12.1500 F1800
G1 X49 F1600
G1 X46.8420 F1600 ; original angle 12.14
G1 X55 F1600
G1 E12.1500 F1800
G1 X49 F1600
G1 X46.8420 F1600 ; original angle 12.14
G1 X55 F1600
G1 E12.1500 F1800
G1 X49 F1600
G1 X46.8420 F1600 ; original angle 12.14
G1 X55 F1600
G1 E12.1500 F1800
G1 X49 F1600
G1 X46.8420 F1600 ; original angle 12.14
G1 X55 F1600
G1 E12.1500 F1800
G1 X49 F1600
G1 X46.8420 F1600 ; original angle 12.14
G1 X55 F1600
G1 E12.1500 F1800
G1 X49 F1600
G1 X46.8420 F1600 ; original angle 12.14
G1 X55 F1600
G1 E12.1500 F1800
G1 X49 F1600
G1 X46.8420 F1600 ; original angle 12.14
G1 X55 F1600
G1 E12.1500 F1800
G1 Z0 F800; lower pin
G1 X35 F2000
G1 Z8 F800; raise pin
G1 X40 F1600
G1 X48.4441 F1600 ; original angle -67.78
G1 X35 F1600
G1 E13.0700 F1800
G1 X40 F1600
G1 X48.8944 F1600 ; original angle -72.29
G1 X35 F1600
G1 E7.1600 F1800
G1 X40 F1600
G1 X46.9678 F1600 ; original angle -47.08
G1 X35 F1600
G1 E12.1000 F1800
G1 Z0 F800; lower pin
G1 X55 F2000
G1 Z8 F800; raise pin
G1 X49 F1600
G1 X47.1424 F1600 ; original angle 9.43
G1 X55 F1600
G1 E12.1000 F1800
G1 X49 F1600
G1 X47.1424 F1600 ; original angle 9.43
G1 X55 F1600
G1 E12.1000 F1800
G1 X49 F1600
G1 X47.1424 F1600 ; original angle 9.43
G1 X55 F1600
G1 E12.1000 F1800
G1 X49 F1600
G1 X47.1424 F1600 ; original angle 9.43
G1 X55 F1600
G1 E12.1000 F1800
G1 X49 F1600
G1 X47.1424 F1600 ; original angle 9.43
G1 X55 F1600
G1 E12.1000 F1800
G1 X49 F1600
G1 X47.1424 F1600 ; original angle 9.43
G1 X55 F1600
G1 E12.1000 F1800
G1 X49 F1600
G1 X47.1424 F1600 ; original angle 9.43
G1 X55 F1600
G1 E12.1000 F1800
G1 X49 F1600
G1 X47.1424 F1600 ; original angle 9.43
G1 X55 F1600
G1 E12.1000 F1800
G1 X49 F1600
G1 X47.1424 F1600 ; original angle 9.43
G1 X55 F1600
G1 E12.1000 F1800
G1 X49 F1600
G1 X47.1424 F1600 ; original angle 9.43
G1 X55 F1600
G1 E12.1000 F1800
G1 X49 F1600
G1 X47.1424 F1600 ; original angle 9.43
G1 X55 F1600
G1 E12.1000 F1800
G1 X49 F1600
G1 X47.1424 F1600 ; original angle 9.43
G1 X55 F1600
G1 E12.1000 F1800
G1 X49 F1600
G1 X47.1424 F1600 ; original angle 9.43
G1 X55 F1600
G1 E12.1000 F1800
G1 X49 F1600
G1 X47.1424 F1600 ; original angle 9.43
G1 X55 F1600
G1 E12.1000 F1800
G1 X49 F1600
G1 X47.1424 F1600 ; original angle 9.43
G1 X55 F1600
G1 E12.1000 F1800
G1 X49 F1600
G1 X47.1424 F1600 ; original angle 9.43
G1 X55 F1600
G1 E12.1000 F1800
G1 X49 F1600
G1 X47.1424 F1600 ; original angle 9.43
G1 X55 F1600
G1 E12.1000 F1800
G1 X49 F1600
G1 X47.1424 F1600 ; original angle 9.43
G1 X55 F1600
G1 E12.1000 F1800
G1 X49 F1600
G1 X47.1424 F1600 ; original angle 9.43
G1 X55 F1600
G1 E12.1000 F1800
G1 X49 F1600
G1 X47.1424 F1600 ; original angle 9.43
G1 X55 F1600
G1 E12.1000 F1800
G1 Z0 F800; lower pin
SET_STEPPER_ENABLE STEPPER=extruder ENABLE=0
M18
M84
