; Converted for Marlin 3D printer
G28 Z ; home axes
G28 X Y ; home axes
G90
M83
M106 S255
G1 X35 Y78 F1600
G4 P500
G1 E97.3300 F1800
G1 Z0 F800; lower pin
G1 X35 F2000
G1 Z8 F800; raise pin
G1 X40 F1600
G1 X80.9732 F1600 ; original angle -135.14
G1 X35 F1600
G1 E87.2200 F1800
G1 Z0 F800; lower pin
G1 X55 F2000
G1 Z8 F800; raise pin
G1 X49 F1600
G1 X37.3313 F1600 ; original angle 90.43
G1 X55 F1600
G1 E86.9900 F1800
G1 Z0 F800; lower pin
G1 X35 F2000
G1 Z8 F800; raise pin
G1 X40 F1600
G1 X81.2025 F1600 ; original angle -135.39
G1 X35 F1600
G1 E97.3300 F1800
G1 X40 F1600
G1 X43.9294 F1600 ; original angle -24.99
G1 X35 F1600
G1 E9.1000 F1800
G1 Z0 F800; lower pin
G1 X55 F2000
G1 Z8 F800; raise pin
G1 X49 F1600
G1 X47.4145 F1600 ; original angle 7.27
G1 X55 F1600
G1 E9.1000 F1800
G1 X49 F1600
G1 X47.4145 F1600 ; original angle 7.27
G1 X55 F1600
G1 E9.1000 F1800
G1 X49 F1600
G1 X47.4145 F1600 ; original angle 7.27
G1 X55 F1600
G1 E9.1000 F1800
G1 X49 F1600
G1 X47.4145 F1600 ; original angle 7.27
G1 X55 F1600
G1 E9.1000 F1800
G1 X49 F1600
G1 X47.4145 F1600 ; original angle 7.27
G1 X55 F1600
G1 E9.1000 F1800
G1 X49 F1600
G1 X47.4145 F1600 ; original angle 7.27
G1 X55 F1600
G1 E9.1000 F1800
G1 X49 F1600
G1 X47.4145 F1600 ; original angle 7.27
G1 X55 F1600
G1 E9.1000 F1800
G1 X49 F1600
G1 X47.4145 F1600 ; original angle 7.27
G1 X55 F1600
G1 E9.1000 F1800
G1 X49 F1600
G1 X47.4145 F1600 ; original angle 7.27
G1 X55 F1600
G1 E9.1000 F1800
G1 X49 F1600
G1 X47.4145 F1600 ; original angle 7.27
G1 X55 F1600
G1 E9.1000 F1800
G1 X49 F1600
G1 X47.4145 F1600 ; original angle 7.27
G1 X55 F1600
G1 E9.1000 F1800
G1 X49 F1600
G1 X47.4145 F1600 ; original angle 7.27
G1 X55 F1600
G1 E9.1000 F1800
G1 X49 F1600
G1 X47.4145 F1600 ; original angle 7.27
G1 X55 F1600
G1 E9.1000 F1800
G1 X49 F1600
G1 X47.4145 F1600 ; original angle 7.27
G1 X55 F1600
G1 E9.1000 F1800
G1 X49 F1600
G1 X47.4145 F1600 ; original angle 7.27
G1 X55 F1600
G1 E9.1000 F1800
G1 X49 F1600
G1 X47.4145 F1600 ; original angle 7.27
G1 X55 F1600
G1 E9.1000 F1800
G1 X49 F1600
G1 X47.4145 F1600 ; original angle 7.27
G1 X55 F1600
G1 E9.1000 F1800
G1 X49 F1600
G1 X47.4145 F1600 ; original angle 7.27
G1 X55 F1600
G1 E9.1000 F1800
G1 X49 F1600
G1 X47.4145 F1600 ; original angle 7.27
G1 X55 F1600
G1 E9.1000 F1800
G1 X49 F1600
G1 X47.4145 F1600 ; original angle 7.27
G1 X55 F1600
G1 E9.1000 F1800
G1 X49 F1600
G1 X47.4145 F1600 ; original angle 7.27
G1 X55 F1600
G1 E9.1000 F1800
G1 X49 F1600
G1 X47.4145 F1600 ; original angle 7.27
G1 X55 F1600
G1 E9.1000 F1800
G1 X49 F1600
G1 X47.4145 F1600 ; original angle 7.27
G1 X55 F1600
G1 E9.1000 F1800
G1 X49 F1600
G1 X47.4145 F1600 ; original angle 7.27
G1 X55 F1600
G1 E9.1000 F1800
G1 X49 F1600
G1 X47.4145 F1600 ; original angle 7.27
G1 X55 F1600
G1 E9.1000 F1800
G1 X49 F1600
G1 X47.4145 F1600 ; original angle 7.27
G1 X55 F1600
G1 E9.1000 F1800
G1 Z0 F800; lower pin
G1 X35 Y78 F1600
SET_STEPPER_ENABLE STEPPER=extruder ENABLE=0
M18
M84
