; Converted for Marlin 3D printer
G28 Z ; home axes
G28 X Y ; home axes
G90
M83
M106 S255
G1 X35 Y78 F1600
G4 P500
G1 E109.5000 F1800
G1 Z0 F800; lower pin
G1 X35 F2000
G1 Z8 F800; raise pin
G1 X40 F1600
G1 X47.8079 F1600 ; original angle -61.08
G1 X35 F1600
G1 E9.2000 F1800
G1 X40 F1600
G1 X42.7169 F1600 ; original angle -16.22
G1 X35 F1600
G1 E9.2000 F1800
G1 X40 F1600
G1 X42.7169 F1600 ; original angle -16.22
G1 X35 F1600
G1 E9.2000 F1800
G1 X40 F1600
G1 X42.7169 F1600 ; original angle -16.22
G1 X35 F1600
G1 E9.2000 F1800
G1 X40 F1600
G1 X42.7169 F1600 ; original angle -16.22
G1 X35 F1600
G1 E9.2000 F1800
G1 X40 F1600
G1 X42.7169 F1600 ; original angle -16.22
G1 X35 F1600
G1 E9.2000 F1800
G1 X40 F1600
G1 X42.7169 F1600 ; original angle -16.22
G1 X35 F1600
G1 E9.2000 F1800
G1 X40 F1600
G1 X42.7169 F1600 ; original angle -16.22
G1 X35 F1600
G1 E9.2000 F1800
G1 X40 F1600
G1 X42.7169 F1600 ; original angle -16.22
G1 X35 F1600
G1 E9.2000 F1800
G1 X40 F1600
G1 X42.7169 F1600 ; original angle -16.22
G1 X35 F1600
G1 E9.2000 F1800
G1 X40 F1600
G1 X42.7169 F1600 ; original angle -16.22
G1 X35 F1600
G1 E9.2000 F1800
G1 Z0 F800; lower pin
G1 X55 F2000
G1 Z8 F800; raise pin
G1 X49 F1600
G1 X40.5001 F1600 ; original angle 76.14
G1 X55 F1600
G1 E69.0700 F1800
G1 X49 F1600
G1 X13.7795 F1600 ; original angle 127.91
G1 X55 F1600
G1 E117.0100 F1800
G1 Z0 F800; lower pin
G1 X35 Y78 F1600
SET_STEPPER_ENABLE STEPPER=extruder ENABLE=0
M18
M84
