; Converted for Marlin 3D printer
G28 Z ; home axes
G28 X Y ; home axes
G90
M83
M106 S255
G1 X35 Y78 F1600
G4 P500
G1 E40.0000 F1500
G1 Z0 F200; lower pin
G1 X35 F2000
G1 Z8 F200; raise pin
G1 X40 F1200
G1 X53.5621 F1200 ; original angle -90.00
G1 X35 F1200
G1 E40.0000 F1500
G1 X40 F1200
G1 X53.5621 F1200 ; original angle -90.00
G1 X35 F1200
G1 E40.0000 F1500
G1 X40 F1200
G1 X53.5621 F1200 ; original angle -90.00
G1 X35 F1200
G1 E20.0000 F1500
G1 Z0 F200; lower pin
SET_STEPPER_ENABLE STEPPER=extruder ENABLE=0
M18
M84
