; Converted for Marlin 3D printer
G28 Z ; home axes
G28 X Y ; home axes
G90
M83
M106 S255
G1 X35 Y78 F1600
G4 P500
G1 E34.9500 F1800
G1 Z0 F800; lower pin
G1 X35 F2000
G1 Z8 F800; raise pin
G1 X40 F1600
G1 X48.4424 F1600 ; original angle -69.76
G1 X35 F1600
G1 E22.2000 F1800
G1 Z0 F800; lower pin
G1 X55 F2000
G1 Z8 F800; raise pin
G1 X49 F1600
G1 X41.8209 F1600 ; original angle 59.64
G1 X55 F1600
G1 E37.1600 F1800
G1 Z0 F800; lower pin
G1 X35 F2000
G1 Z8 F800; raise pin
G1 X40 F1600
G1 X86.0034 F1600 ; original angle -140.65
G1 X35 F1600
G1 E184.9200 F1800
G1 X40 F1600
G1 X68.1852 F1600 ; original angle -120.44
G1 X35 F1600
G1 E196.1100 F1800
G1 X40 F1600
G1 X88.0193 F1600 ; original angle -142.91
G1 X35 F1600
G1 E46.3500 F1800
G1 Z0 F800; lower pin
G1 X55 F2000
G1 Z8 F800; raise pin
G1 X49 F1600
G1 X42.3176 F1600 ; original angle 50.07
G1 X55 F1600
G1 E27.1000 F1800
G1 Z0 F800; lower pin
G1 X35 F2000
G1 Z8 F800; raise pin
G1 X40 F1600
G1 X48.1251 F1600 ; original angle -65.76
G1 X35 F1600
G1 E32.4200 F1800
G1 Z0 F800; lower pin
G1 X35 Y78 F1600
SET_STEPPER_ENABLE STEPPER=extruder ENABLE=0
M18
M84
