; Converted for Marlin 3D printer
G28 Z ; home axes
G28 X Y ; home axes
G90
M83
M106 S255
G1 X35 Y78 F1600
G4 P500
G1 E32.0200 F1800
G1 Z0 F800; lower pin
G1 X35 F2000
G1 Z8 F800; raise pin
G1 X40 F1600
G1 X49.4541 F1600 ; original angle -78.58
G1 X35 F1600
G1 E31.9500 F1800
G1 Z0 F800; lower pin
G1 X55 F2000
G1 Z8 F800; raise pin
G1 X49 F1600
G1 X40.8642 F1600 ; original angle 73.15
G1 X55 F1600
G1 E34.6700 F1800
G1 Z0 F800; lower pin
G1 X35 F2000
G1 Z8 F800; raise pin
G1 X40 F1600
G1 X48.9208 F1600 ; original angle -74.52
G1 X35 F1600
G1 E27.2800 F1800
G1 Z0 F800; lower pin
G1 X35 Y78 F1600
SET_STEPPER_ENABLE STEPPER=extruder ENABLE=0
M18
M84
